dist/assets/images/icons/truck.svg

<svg width="35" height="33" viewBox="0 0 35 33" fill="none" xmlns="http://www.w3.org/2000/svg">
<path fill-rule="evenodd" clip-rule="evenodd" d="M24.9669 13.7169L22.3742 15.3072L23.9106 18.1898L26.5994 16.5994L24.9669 13.7169ZM19.9735 4.5724L17.3808 6.16264L18.9172 8.94574L21.51 7.3555L19.9735 4.5724ZM19.7815 26.8373C20.1656 27.2349 20.3576 27.7318 20.3576 28.2288C20.3576 28.7258 20.1656 29.2228 19.7815 29.6204C19.3974 30.018 19.0133 30.2167 18.4371 30.2167C17.957 30.2167 17.4768 30.018 17.1887 29.6204L17.0927 29.521C16.7086 29.2228 16.6126 28.7258 16.6126 28.2288C16.6126 27.7318 16.8046 27.2349 17.1887 26.8373C17.4768 26.4397 17.957 26.3403 18.4371 26.3403C19.0133 26.2409 19.4934 26.4397 19.7815 26.8373ZM18.4371 23.4578C18.2451 23.4578 18.0529 23.4578 17.7649 23.4578L6.62585 3.47902C6.43379 3.08143 5.95369 2.68382 5.37753 2.68382H1.34436C0.672179 2.68382 0 3.3796 0 4.07538C0 4.87056 0.672179 5.46693 1.34436 5.46693H4.6093L15.2682 24.75L15.1722 24.8494C14.308 25.7439 13.8278 26.9367 13.8278 28.2288C13.8278 29.521 14.2119 30.6144 15.0761 31.509L15.1722 31.6084C15.9404 32.503 17.0927 33 18.3411 33C19.5894 33 20.7417 32.503 21.6059 31.6084C22.4702 30.7139 22.9503 29.521 22.9503 28.2288C22.9503 27.3343 22.7583 26.5392 22.2781 25.8434L34.2814 18.5873C34.9536 18.1897 35.2417 17.3946 34.7616 16.6989C34.3775 16.0031 33.5132 15.7049 32.9371 16.2019L20.0696 23.8553C19.7815 23.5571 19.1093 23.4578 18.4371 23.4578ZM24.4868 1.88863L21.4139 3.7772L23.4305 7.3555C23.6225 7.75309 23.5265 8.34943 23.1424 8.54822L19.1093 10.9338C18.7252 11.1326 18.149 11.0332 17.957 10.6356L15.9404 7.05733L12.9636 8.94574L19.5894 20.8735L22.6622 18.985L20.6457 15.4067C20.4536 15.0091 20.5497 14.4127 20.9338 14.2139L24.9669 11.8283C25.351 11.6296 25.8311 11.7289 26.0231 12.1265L28.0398 15.7048L31.1126 13.8163L24.4868 1.88863ZM24.2947 0.0994003C24.6788 -0.0993941 25.1589 -8.99789e-06 25.447 0.39758L32.8411 13.8163C33.1292 14.2139 32.9371 14.7108 32.5529 14.9096V15.009L19.6854 22.6626C19.3013 22.8614 18.7252 22.762 18.5331 22.3644L11.0431 8.94574C10.851 8.54816 10.947 8.05116 11.3311 7.85237L24.2947 0.0994003Z" fill="#503E3F"/>
</svg>

<svg width="35" height="33" fill="none" xmlns="http://www.w3.org/2000/svg"><path fill-rule="evenodd" clip-rule="evenodd" d="M24.967 13.717l-2.593 1.59 1.537 2.883 2.688-1.59-1.632-2.883zm-4.993-9.145l-2.593 1.59 1.536 2.784 2.593-1.59-1.537-2.784zm-.192 22.265c.384.398.576.895.576 1.392 0 .497-.192.994-.576 1.391-.385.398-.769.597-1.345.597-.48 0-.96-.199-1.248-.597l-.096-.099c-.384-.298-.48-.795-.48-1.292s.192-.994.576-1.392c.288-.397.768-.497 1.248-.497.576-.1 1.056.1 1.345.497zm-1.345-3.38h-.672L6.625 3.48c-.191-.398-.671-.795-1.247-.795H1.344C.672 2.684 0 3.38 0 4.075c0 .796.672 1.392 1.344 1.392H4.61L15.27 24.75l-.097.1a4.82 4.82 0 00-1.344 3.379c0 1.292.384 2.385 1.248 3.28l.096.1c.768.894 1.92 1.391 3.17 1.391 1.247 0 2.4-.497 3.264-1.392a4.819 4.819 0 001.344-3.38c0-.894-.192-1.689-.672-2.385l12.003-7.256c.673-.397.96-1.192.48-1.888-.384-.696-1.248-.994-1.824-.497L20.07 23.855c-.288-.298-.96-.397-1.633-.397zm6.05-21.568l-3.073 1.888 2.016 3.579c.192.397.096.993-.288 1.192l-4.033 2.386c-.384.199-.96.1-1.152-.298L15.94 7.057l-2.976 1.889 6.625 11.928 3.073-1.889-2.016-3.578c-.192-.398-.096-.994.288-1.193l4.033-2.386c.384-.198.864-.1 1.056.299l2.017 3.578 3.073-1.889L24.487 1.89zm-.192-1.79c.384-.198.864-.099 1.152.299l7.394 13.418c.288.398.096.895-.288 1.094v.099l-12.868 7.654c-.384.198-.96.099-1.152-.299l-7.49-13.418c-.192-.398-.096-.895.288-1.094L24.295.1z" fill="#503E3F"/></svg>
